X:157
T: Qiongpo diao
N: C1653
O: China,Henan, Anyang
S: IV, 139]
R: Xiaodiao. Qiongfu duibi]
M: 2/4
L: 1/16
K: F
c2Afd2dc | G2A2A2GF | G3Ac2Ac | d4dcA2 |
c2Afd2dc | G3AAGF2 | G3AG2C2 | F2GFD4 |
F2DFD2DD | A2GAG4 | G3Ac2A2 | d4dcA2 |
c2Afd2dc | G3AAGF2 | G3AG2C2 | F2GFD4

@@@ Tune index: 6712
